!! 00000] TT[WS
!!!OTL: Pan wugeng
!!!ARE: Asia, China,ÿShanxi Heshun
!! Ethnic Group: Han
!! WI, 85
!!!SCT: J0102
!!!YEM: Copyright 1995, estate of Helmut Schaffrath.
**kern
*ICvox
*Ivox
*M2/4
*k[b-e-a-]
*E-:
{4f
8f
8g
=1
8f
8e-
8c
8e-
=2
4f
8g
8e-
=3
2f}
=4
{4b-
8cc
8b-
=5
4a-
8cc
8g
=6
8f
8e-
8f
8g
=7
8f
8e-
4c
=8
2e-}
=9
{8c
8e-
8f
8g
=10
8g
8d
8e-
8f
=11
2e-}
=12
{8cc
8dd
8cc
8b-
=13
4cc
4r
=14
8cc
8dd
8cc
8b-
=15
4a-
8cc
8g
=16
8f
8e-
8f
8g
=17
8f
8e-
4c
=18
2e-}
=19
{8g
4e-
8g
=20
2f
=21
4.e-
8f
=22
4.b-
8g
=23
8f
8g
4b-
=24
8b-
8g
8f
8e-
=25
2c}
=26
{8cc
8b-
8cc
8ee-
=27
8ee-
4b-
8cc
=28
2b-
=29
8.g
16b-
8cc
8ee-
=30
8ee-
4b-
8cc
=31
2b-}
==
!!!AGN: Xiaodiao. Qingge, Aisu
!!!ONB: ESAC (Essen Associative Code) Database: CHINA
!!!AMT: simple duple
!!!AIN: vox
!!!EED: Helmut Schaffrath
!!!EEV: 1.0
*-
